vsi/repo-clone_dark.svg

<svg viewBox="0 0 16 16" fill="none" xmlns="http://www.w3.org/2000/svg" height="1em" width="1em">
  <path fill-rule="evenodd" clip-rule="evenodd" d="M13 10H3.99997V2H7.99997V1H3.73996C3.51061 1.00254 3.28363 1.04659 3.06998 1.13C2.85292 1.22447 2.65856 1.36429 2.49997 1.54004C2.33792 1.70959 2.21204 1.91029 2.12998 2.13C2.04772 2.32656 2.0036 2.53696 1.99997 2.75V12.25C1.99757 12.4798 2.0418 12.7078 2.12998 12.92C2.30529 13.3486 2.6433 13.6902 3.06998 13.87C3.28363 13.9534 3.51061 13.9975 3.73996 14H3.99997V13H3.73996C3.64018 13.0003 3.54145 12.9798 3.44998 12.9399C3.27129 12.8614 3.12854 12.7187 3.04996 12.54C3.03479 12.444 3.03479 12.3461 3.04996 12.25V11.75C3.03479 11.6539 3.03479 11.556 3.04996 11.46C3.12854 11.2813 3.27129 11.1386 3.44998 11.0601C3.54145 11.0202 3.64018 10.9997 3.73996 11H13V13H8.99997V14H13.5L14 13.5V9H13V10ZM6 3H5V4H6V3ZM5 5H6V6H5V5ZM5 7H6V8H5V7ZM5.28 15H5V12H8V15H7.72L6.5 13.49L5.28 15ZM10 1H14.5L15 1.5V7.5L14.5 8H12V9H11V8H10C9.73478 8 9.48044 7.89469 9.29291 7.70715C9.10537 7.51962 9 7.26522 9 7V2C9 1.73478 9.10537 1.48038 9.29291 1.29285C9.48044 1.10531 9.73478 1 10 1ZM10.5 7H11V6H10.5C10.3674 6 10.2402 6.05272 10.1464 6.14648C10.0527 6.24025 10 6.36739 10 6.5C10 6.63261 10.0527 6.75975 10.1464 6.85352C10.2402 6.94728 10.3674 7 10.5 7ZM12 7H14V6H12V7ZM11 5H14V2H11V5Z" fill="#C5C5C5"/>
</svg>

<svg viewBox="0 0 16 16" fill="none" xmlns="http://www.w3.org/2000/svg" height="1em" width="1em">
  <path fill-rule="evenodd" clip-rule="evenodd" d="M13 10H4V2h4V1H3.74a1.9 1.9 0 0 0-.67.13 1.66 1.66 0 0 0-.57.41 1.73 1.73 0 0 0-.37.59 1.68 1.68 0 0 0-.13.62v9.5a1.75 1.75 0 0 0 1.07 1.62 1.9 1.9 0 0 0 .67.13H4v-1h-.26a.72.72 0 0 1-.29-.06.78.78 0 0 1-.4-.4.93.93 0 0 1 0-.29v-.5a.93.93 0 0 1 0-.29.78.78 0 0 1 .4-.4.72.72 0 0 1 .29-.06H13v2H9v1h4.5l.5-.5V9h-1v1ZM6 3H5v1h1V3ZM5 5h1v1H5V5Zm0 2h1v1H5V7Zm.28 8H5v-3h3v3h-.28L6.5 13.49 5.28 15ZM10 1h4.5l.5.5v6l-.5.5H12v1h-1V8h-1a1 1 0 0 1-1-1V2a1 1 0 0 1 1-1Zm.5 6h.5V6h-.5a.5.5 0 0 0 0 1ZM12 7h2V6h-2v1Zm-1-2h3V2h-3v3Z" fill="#C5C5C5"/>
</svg>
